src/images/icons/sun.svg

<?xml version="1.0" encoding="utf-8"?>
<!-- Generated by IcoMoon.io -->
<!DOCTYPE svg PUBLIC "-//W3C//DTD SVG 1.1//EN" "http://www.w3.org/Graphics/SVG/1.1/DTD/svg11.dtd">
<svg version="1.1" xmlns="http://www.w3.org/2000/svg" xmlns:xlink="http://www.w3.org/1999/xlink" width="512" height="512" viewBox="0 0 512 512">
<path d="M256 128c-70.692 0-128 57.308-128 128s57.308 128 128 128 128-57.308 128-128-57.308-128-128-128zM301.255 301.255c-12.088 12.088-28.16 18.745-45.255 18.745s-33.167-6.657-45.255-18.745c-12.088-12.088-18.745-28.16-18.745-45.255s6.657-33.167 18.745-45.255c12.088-12.088 28.16-18.745 45.255-18.745s33.167 6.657 45.255 18.745c12.088 12.088 18.745 28.16 18.745 45.255s-6.657 33.167-18.745 45.255z"></path>
<path d="M480 224h-32c-17.673 0-32 14.327-32 32v0c0 17.673 14.327 32 32 32h32c17.673 0 32-14.327 32-32v0c0-17.673-14.327-32-32-32z"></path>
<path d="M96 256v0c0-17.673-14.327-32-32-32h-32c-17.673 0-32 14.327-32 32v0c0 17.673 14.327 32 32 32h32c17.673 0 32-14.327 32-32z"></path>
<path d="M256 416v0c-17.673 0-32 14.327-32 32v32c0 17.673 14.327 32 32 32v0c17.673 0 32-14.327 32-32v-32c0-17.673-14.327-32-32-32z"></path>
<path d="M256 96v0c17.673 0 32-14.327 32-32v-32c0-17.673-14.327-32-32-32v0c-17.673 0-32 14.327-32 32v32c0 17.673 14.327 32 32 32z"></path>
<path d="M414.392 369.137c-12.497-12.497-32.758-12.497-45.255 0v0c-12.497 12.497-12.497 32.758 0 45.255l22.627 22.627c12.497 12.497 32.758 12.497 45.255 0v0c12.497-12.497 12.497-32.758 0-45.255l-22.627-22.627z"></path>
<path d="M97.608 142.863c12.497 12.496 32.758 12.496 45.255 0v0c12.496-12.496 12.496-32.758 0-45.255l-22.627-22.627c-12.497-12.496-32.758-12.496-45.255 0v0c-12.496 12.497-12.496 32.758 0 45.255l22.627 22.627z"></path>
<path d="M142.863 369.137c-12.496-12.497-32.758-12.497-45.255 0l-22.627 22.627c-12.496 12.497-12.496 32.758 0 45.255v0c12.497 12.497 32.758 12.497 45.255 0l22.627-22.627c12.496-12.497 12.496-32.758 0-45.255v0z"></path>
<path d="M369.137 142.863c12.497 12.496 32.758 12.496 45.255 0l22.627-22.627c12.497-12.497 12.497-32.758 0-45.255v0c-12.497-12.496-32.758-12.496-45.255 0l-22.627 22.627c-12.497 12.497-12.497 32.758 0 45.255v0z"></path>
</svg>

<?xml version="1.0" encoding="utf-8"?>
<!-- Generator: Adobe Illustrator 19.2.1, SVG Export Plug-In . SVG Version: 6.00 Build 0)  -->
<svg version="1.1" id="Layer_1" xmlns="http://www.w3.org/2000/svg" xmlns:xlink="http://www.w3.org/1999/xlink" x="0px" y="0px"
	 viewBox="0 0 512 512" style="enable-background:new 0 0 512 512;" xml:space="preserve">
<circle class="lexicon-icon-body" fill="none" cx="256" cy="256" r="128"/>
<path class="lexicon-icon-outline" d="M256,128c-70.7,0-128,57.3-128,128s57.3,128,128,128s128-57.3,128-128S326.7,128,256,128z M301.3,301.3
	C289.2,313.3,273.1,320,256,320s-33.2-6.7-45.3-18.7C198.7,289.2,192,273.1,192,256s6.7-33.2,18.7-45.3
	c12.1-12.1,28.2-18.7,45.3-18.7s33.2,6.7,45.3,18.7S320,238.9,320,256S313.3,289.2,301.3,301.3z"/>
<path class="lexicon-icon-outline" d="M480,224h-32c-17.7,0-32,14.3-32,32l0,0c0,17.7,14.3,32,32,32h32c17.7,0,32-14.3,32-32l0,0C512,238.3,497.7,224,480,224z"/>
<path class="lexicon-icon-outline" d="M96,256L96,256c0-17.7-14.3-32-32-32H32c-17.7,0-32,14.3-32,32l0,0c0,17.7,14.3,32,32,32h32C81.7,288,96,273.7,96,256z"/>
<path class="lexicon-icon-outline" d="M256,416L256,416c-17.7,0-32,14.3-32,32v32c0,17.7,14.3,32,32,32l0,0c17.7,0,32-14.3,32-32v-32C288,430.3,273.7,416,256,416
	z"/>
<path class="lexicon-icon-outline" d="M256,96L256,96c17.7,0,32-14.3,32-32V32c0-17.7-14.3-32-32-32l0,0c-17.7,0-32,14.3-32,32v32C224,81.7,238.3,96,256,96z"/>
<path class="lexicon-icon-outline" d="M414.4,369.1c-12.5-12.5-32.8-12.5-45.3,0l0,0c-12.5,12.5-12.5,32.8,0,45.3l22.6,22.6c12.5,12.5,32.8,12.5,45.3,0l0,0
	c12.5-12.5,12.5-32.8,0-45.3L414.4,369.1z"/>
<path class="lexicon-icon-outline" d="M97.6,142.9c12.5,12.5,32.8,12.5,45.3,0l0,0c12.5-12.5,12.5-32.8,0-45.3L120.2,75C107.7,62.5,87.5,62.5,75,75l0,0
	c-12.5,12.5-12.5,32.8,0,45.3L97.6,142.9z"/>
<path class="lexicon-icon-outline" d="M142.9,369.1c-12.5-12.5-32.8-12.5-45.3,0L75,391.8c-12.5,12.5-12.5,32.8,0,45.3l0,0c12.5,12.5,32.8,12.5,45.3,0l22.6-22.6
	C155.4,401.9,155.4,381.6,142.9,369.1L142.9,369.1z"/>
<path class="lexicon-icon-outline" d="M369.1,142.9c12.5,12.5,32.8,12.5,45.3,0l22.6-22.6c12.5-12.5,12.5-32.8,0-45.3l0,0c-12.5-12.5-32.8-12.5-45.3,0l-22.6,22.6
	C356.6,110.1,356.6,130.4,369.1,142.9L369.1,142.9z"/>
</svg>
